X:1
T:Green Sleeves to a Ground
T:Green Sleeves to a Ground
T:The Division Flute
T:John Walsh (1665 – 1736)
C:John Walsh (1665 – 1736)
L:1/8
M:6/4
K:F
V:1 treble nm="Piano" snm="Pno."
V:1
 f4 g2 a4 a2 | g4 e2 c6 | d3 e f2 g2 a2 f2 | e4 ^c2 A6 | f4 g2 a3 g f2 | g4 e2 c3 d e2 | %6
 f3 e d2 e3 d ^c2 | d6- d4 || f3 g a2 a3 b a2 | g3 a g2 e3 f g2 | f3 e f2 d3 e f2 | %11
 e3 f e2 ^c3 d e2 | f3 g a2 a3 b c'2 | g3 a g2 e3 f g2 | f2 e2 d2 ^c3 =B c2 | d6- d4 || %16
 c'4 c'2 c'2 b2 a2 | g4 g2 e2 f2 g2 | f4 f2 d2 e2 f2 | e4 e2 ^c2 d2 e2 | c'4 c'2 c'2 b2 a2 | %21
 g4 g2 e2 f2 g2 | a2 g2 f2 g2 e4 | d6- d4 || a2 f2 d2 a2 f2 d2 | g2 e2 c2 g2 e2 c2 | %26
 a2 f2 d2 a2 f2 d2 | e2 ^c2 A2 e2 c2 A2 | c'2 a2 f2 c'2 a2 f2 | g2 e2 c2 g2 e2 c2 | %30
 a2 f2 d2 e2 ^c2 A2 | d6- d4 || c'2 f2 d'2 c'3 b a2 | g2 e2 c2 g2 G2 bc' | d'2 d2 e'2 f'2 e'2 d'2 | %35
 ^c'2 a2 e2 (a2 a3) b | c'2 f2 d'2 c'3 b a2 | g2 e2 c2 g2 G2 ag | f2 e2 d2 e2 ^c2 A2 | d6- d4 || %40
 d2 f2 d2 agfe d2 | c2 e2 c2 gfed c2 | d2 f2 d2 agfe d2 | A2 ^c2 A2 edc=B A2 | f2 a2 f2 c'bag f2 | %45
 c2 e2 c2 gfed c2 | agfe d2 ed^c=B A2 | d6- d4 || f2 d2 e2 f2 g2 a2 | e2 c2 d2 e2 f2 g2 | %50
 f2 d2 e2 f2 g2 a2 | e4 ^c2 A6 | a2 f2 g2 a2 b2 c'2 | e2 c2 d2 e2 f2 g2 | f2 d2 f2 e2 ^c2 A2 | %55
 d6- d4 || defgad d'^c'd'e'f'd' | e'4 c'2 c'6 | defgad d'^c'd'e'f'd' | ^c'4 a2 a6 | %60
 fefgab c'd'e'c'd'e' | c'2 g2 g2 g3 a b2 | f2 e2 d2 ^c3 =B c2 | d6- d4 || fefgag fefgag | %65
 edefgf edefgf | fefgfe dcdefd | eded^cB A=BcdcA | fefgag fefgag | gfgagf edefge | fefgag gfede^c | %71
 d6- d4 || de f2 d2 fg a2 d2 | cd e2 c2 ef g2 c2 | de f2 d2 fg a2 d2 | A=B ^c2 A2 cd e2 A2 | %76
 fg a2 f2 ab c'2 f2 | cd e2 c2 ef g2 c2 | de f2 d2 ^cd e2 c2 | d6- d4 || f2 f2 f2 f2 f2 f2 | %81
 c'2 c'2 c'2 c3 d e2 | d'2 d'2 d'2 d3 efg | a2 a2 a2 ^c2 A2 A2 | f2 f2 f2 f3 g a2 | %85
 c'2 c'2 d'2 e'3 d' c'2 | f2 e2 d2 ^c3 =B c2 | d6- d4 || faaaaa faaaaa | eggggg eggggg | %90
 dfffff dfffff | ceeeee Aeeeee | ac'c'c'c'c' fc'c'c'c'c' | eggggg cggggg | dfffff Aeeeee | %95
 d6- d4 || d'2 c'bag f4 d2 | c'2 bagf e4 c2 | d'2 c'bag f4 d2 | a2 gfed ^c4 A2 | f2 edcB A4 f2 | %101
 c'2 bagf e4 c2 | fga=bc'd' e'd'c'ab^c' | d'6- d'4 || f2 d2 ag f2 d2 gf | e2 c2 gf e2 c2 ag | %106
 f2 d2 ag f2 d2 ed | ^c2 A2 ed c2 A2 c'b | a2 f2 c'b a2 f2 gf | e2 c2 gf e2 c2 ab | %110
 c'2 a2 d'2 ^c'4 bc' | d'6- d'4 || f2 c'2 b2 a2 g2 f2 | c2 g2 f2 e2 d2 c2 | d2 a2 g2 f2 e2 d2 | %115
 a2 e'2 d'2 ^c'2 =b2 a2 | f2 c'2 b2 a2 g2 f2 | c2 g2 f2 e2 d2 c2 | d2 a2 gfed ^c=BcA | d6- d4 |] %120

